neru-dark-classic/32x32/start/rosa-linux.svg

<?xml version="1.0" encoding="UTF-8" standalone="no"?>
<svg
   xmlns:dc="http://purl.org/dc/elements/1.1/"
   xmlns:cc="http://creativecommons.org/ns#"
   xmlns:rdf="http://www.w3.org/1999/02/22-rdf-syntax-ns#"
   xmlns:svg="http://www.w3.org/2000/svg"
   xmlns="http://www.w3.org/2000/svg"
   xmlns:xlink="http://www.w3.org/1999/xlink"
   xmlns:sodipodi="http://sodipodi.sourceforge.net/DTD/sodipodi-0.dtd"
   xmlns:inkscape="http://www.inkscape.org/namespaces/inkscape"
   width="32"
   height="32"
   version="1"
   id="svg16"
   sodipodi:docname="rosa-linux.svg"
   inkscape:version="0.92.4 5da689c313, 2019-01-14">
  <metadata
     id="metadata22">
    <rdf:RDF>
      <cc:Work
         rdf:about="">
        <dc:format>image/svg+xml</dc:format>
        <dc:type
           rdf:resource="http://purl.org/dc/dcmitype/StillImage" />
        <dc:title />
      </cc:Work>
    </rdf:RDF>
  </metadata>
  <defs
     id="defs20">
    <linearGradient
       inkscape:collect="always"
       id="linearGradient820">
      <stop
         style="stop-color:#a6c4d2;stop-opacity:1"
         offset="0"
         id="stop816" />
      <stop
         style="stop-color:#d3dae3;stop-opacity:1"
         offset="1"
         id="stop818" />
    </linearGradient>
    <linearGradient
       inkscape:collect="always"
       xlink:href="#linearGradient820"
       id="linearGradient822"
       x1="2.6032882"
       y1="29.753887"
       x2="29.804914"
       y2="2.4529164"
       gradientUnits="userSpaceOnUse" />
  </defs>
  <sodipodi:namedview
     pagecolor="#ffffff"
     bordercolor="#666666"
     borderopacity="1"
     objecttolerance="10"
     gridtolerance="10"
     guidetolerance="10"
     inkscape:pageopacity="0"
     inkscape:pageshadow="2"
     inkscape:window-width="567"
     inkscape:window-height="515"
     id="namedview18"
     showgrid="false"
     inkscape:zoom="7.8104265"
     inkscape:cx="16"
     inkscape:cy="16"
     inkscape:window-x="651"
     inkscape:window-y="72"
     inkscape:window-maximized="0"
     inkscape:current-layer="svg16" />
  <path
     style="color:#000000;font-style:normal;font-variant:normal;font-weight:normal;font-stretch:normal;font-size:medium;line-height:normal;font-family:sans-serif;font-variant-ligatures:normal;font-variant-position:normal;font-variant-caps:normal;font-variant-numeric:normal;font-variant-alternates:normal;font-feature-settings:normal;text-indent:0;text-align:start;text-decoration:none;text-decoration-line:none;text-decoration-style:solid;text-decoration-color:#000000;letter-spacing:normal;word-spacing:normal;text-transform:none;writing-mode:lr-tb;direction:ltr;text-orientation:mixed;dominant-baseline:auto;baseline-shift:baseline;text-anchor:start;white-space:normal;shape-padding:0;clip-rule:nonzero;display:inline;overflow:visible;visibility:visible;opacity:1;isolation:auto;mix-blend-mode:normal;color-interpolation:sRGB;color-interpolation-filters:linearRGB;solid-color:#000000;solid-opacity:1;vector-effect:none;fill:url(#linearGradient822);fill-opacity:1;fill-rule:evenodd;stroke:none;stroke-width:0.63632917;stroke-linecap:butt;stroke-linejoin:miter;stroke-miterlimit:4;stroke-dasharray:none;stroke-dashoffset:0;stroke-opacity:1;color-rendering:auto;image-rendering:auto;shape-rendering:auto;text-rendering:auto;enable-background:accumulate"
     d="M 16.203125 2.4355469 C 8.6800555 2.4355469 2.5644531 8.5570856 2.5644531 16.083984 C 2.5644531 23.610885 8.6800645 29.732422 16.203125 29.732422 C 23.726187 29.732422 29.84375 23.610946 29.84375 16.083984 C 29.84375 8.5570248 23.726196 2.4355469 16.203125 2.4355469 z M 16.203125 4.3320312 C 22.700157 4.3320314 27.945312 9.5817891 27.945312 16.083984 C 27.945312 22.586182 22.700168 27.835938 16.203125 27.835938 C 9.7060843 27.835938 4.4589844 22.586181 4.4589844 16.083984 C 4.4589844 9.5817891 9.7060944 4.3320314 16.203125 4.3320312 z M 22.839844 7.8125 L 22.484375 7.84375 L 22.130859 7.8769531 L 21.78125 7.9082031 C 20.060207 8.0639157 19.024466 8.323068 15.310547 8.6113281 C 11.104602 8.9377756 7.6752014 12.345657 7.8535156 16.728516 C 8.0296941 21.058842 11.386727 24.648438 15.738281 24.648438 C 20.088904 24.648438 23.625 21.068694 23.625 16.689453 C 23.6204 14.122791 22.761673 11.404494 22.816406 8.8730469 L 22.839844 7.8125 z M 19.919922 10.042969 C 19.540956 10.795324 19.071344 11.89455 18.257812 14.046875 C 17.241481 16.735734 15.743742 17.96297 14.21875 18.613281 C 12.824612 19.207792 11.411357 19.265375 10.376953 19.253906 C 10.010741 18.467109 9.78615 17.588875 9.7480469 16.652344 C 9.6110473 13.284945 12.166733 10.757327 15.457031 10.501953 C 17.786834 10.321117 18.931824 10.173082 19.919922 10.042969 z M 21.166016 11.658203 C 21.384872 13.534285 21.725955 15.288783 21.728516 16.691406 C 21.728231 20.055416 19.053165 22.75 15.738281 22.75 C 14.114825 22.75 12.68094 22.103254 11.621094 21.044922 C 12.597565 20.979426 13.740227 20.802423 14.925781 20.296875 C 16.846026 19.478018 18.783241 17.794301 19.953125 14.699219 C 20.524055 13.188731 20.877679 12.318238 21.166016 11.658203 z "
     id="rosa-linux" />
</svg>

<svg xmlns="http://www.w3.org/2000/svg" xmlns:xlink="http://www.w3.org/1999/xlink" width="32" height="32" version="1"><defs><linearGradient id="a"><stop offset="0" stop-color="#a6c4d2"/><stop offset="1" stop-color="#d3dae3"/></linearGradient><linearGradient xlink:href="#a" id="b" x1="2.603" y1="29.754" x2="29.805" y2="2.453" gradientUnits="userSpaceOnUse"/></defs><path style="line-height:normal;font-variant-ligatures:normal;font-variant-position:normal;font-variant-caps:normal;font-variant-numeric:normal;font-variant-alternates:normal;font-feature-settings:normal;text-indent:0;text-align:start;text-decoration-line:none;text-decoration-style:solid;text-decoration-color:#000;text-transform:none;text-orientation:mixed;white-space:normal;shape-padding:0;isolation:auto;mix-blend-mode:normal;solid-color:#000;solid-opacity:1" d="M16.203 2.436c-7.523 0-13.639 6.121-13.639 13.648 0 7.527 6.116 13.648 13.64 13.648 7.522 0 13.64-6.121 13.64-13.648 0-7.527-6.118-13.648-13.64-13.648zm0 1.896c6.497 0 11.742 5.25 11.742 11.752 0 6.502-5.245 11.752-11.742 11.752A11.734 11.734 0 0 1 4.46 16.084 11.734 11.734 0 0 1 16.203 4.332zm6.637 3.48l-.356.032-.353.033-.35.031c-1.72.156-2.757.415-6.47.703-4.206.327-7.636 3.735-7.457 8.118.176 4.33 3.533 7.92 7.884 7.92 4.35 0 7.887-3.58 7.887-7.96-.005-2.566-.863-5.285-.809-7.816l.024-1.06zm-2.92 2.231c-.379.752-.849 1.852-1.662 4.004-1.017 2.689-2.514 3.916-4.04 4.566-1.393.595-2.807.652-3.841.64a6.807 6.807 0 0 1-.629-2.6c-.137-3.368 2.419-5.896 5.709-6.151 2.33-.18 3.475-.329 4.463-.459zm1.246 1.615c.219 1.876.56 3.63.563 5.033 0 3.364-2.676 6.059-5.99 6.059a5.768 5.768 0 0 1-4.118-1.705c.977-.066 2.12-.243 3.305-.748 1.92-.819 3.857-2.503 5.027-5.598.571-1.51.925-2.38 1.213-3.04z" color="#000" font-weight="400" font-family="sans-serif" overflow="visible" fill="url(#b)" fill-rule="evenodd"/></svg>
